icons/svg/Navigation/dashboard.svg

<svg width="24" height="24" viewBox="0 0 24 24" fill="none" xmlns="http://www.w3.org/2000/svg">
<g clip-path="url(#clip0_176_579)">
<path d="M12 2C17.523 2 22 6.477 22 12C22.0015 13.3156 21.7427 14.6185 21.2385 15.8336C20.7342 17.0487 19.9945 18.152 19.062 19.08C18.662 19.48 18.012 19.472 17.622 19.067L16.78 18.194C16.6889 18.0994 16.6172 17.9879 16.5692 17.8656C16.5212 17.7434 16.4977 17.6129 16.5002 17.4816C16.5026 17.3503 16.5308 17.2208 16.5833 17.1004C16.6358 16.98 16.7114 16.8711 16.806 16.78C16.997 16.5959 17.2532 16.4953 17.5184 16.5002C17.6497 16.5026 17.7792 16.5308 17.8996 16.5833C18.02 16.6358 18.1289 16.7114 18.22 16.806L18.318 16.908C19.2364 15.7256 19.8046 14.3092 19.9579 12.8199C20.1113 11.3306 19.8436 9.82815 19.1854 8.48343C18.5272 7.1387 17.5048 6.00567 16.2346 5.21319C14.9643 4.4207 13.4972 4.00057 12 4.00057C10.5028 4.00057 9.03569 4.4207 7.76545 5.21319C6.49521 6.00567 5.47284 7.1387 4.81462 8.48343C4.15639 9.82815 3.88873 11.3306 4.04207 12.8199C4.19541 14.3092 4.76359 15.7256 5.682 16.908L5.78 16.806C5.87114 16.7114 5.98001 16.6358 6.10039 16.5833C6.22077 16.5308 6.35031 16.5026 6.48162 16.5002C6.61292 16.4977 6.74341 16.5212 6.86564 16.5692C6.98787 16.6172 7.09945 16.6889 7.194 16.78C7.28855 16.8711 7.36423 16.98 7.4167 17.1004C7.46918 17.2208 7.49743 17.3503 7.49985 17.4816C7.50226 17.6129 7.47879 17.7434 7.43078 17.8656C7.38276 17.9879 7.31114 18.0994 7.22 18.194L6.378 19.067C6.28487 19.1634 6.17349 19.2403 6.05034 19.2932C5.9272 19.3461 5.79475 19.374 5.66072 19.3752C5.5267 19.3764 5.39377 19.3509 5.26969 19.3003C5.1456 19.2496 5.03285 19.1747 4.938 19.08C4.00547 18.152 3.26578 17.0487 2.76154 15.8336C2.2573 14.6185 1.99848 13.3156 2 12C2 6.477 6.477 2 12 2ZM12 6C12.2652 6 12.5196 6.10536 12.7071 6.29289C12.8946 6.48043 13 6.73478 13 7V12.268C13.3813 12.4881 13.6792 12.8279 13.8477 13.2347C14.0162 13.6414 14.0457 14.0924 13.9318 14.5176C13.8178 14.9429 13.5667 15.3187 13.2175 15.5867C12.8682 15.8547 12.4403 16 12 16C11.5597 16 11.1318 15.8547 10.7825 15.5867C10.4333 15.3187 10.1822 14.9429 10.0682 14.5176C9.95429 14.0924 9.98384 13.6414 10.1523 13.2347C10.3208 12.8279 10.6187 12.4881 11 12.268V7C11 6.73478 11.1054 6.48043 11.2929 6.29289C11.4804 6.10536 11.7348 6 12 6Z" fill="#3C46B1"/>
</g>
<defs>
<clipPath id="clip0_176_579">
<rect width="24" height="24" fill="white"/>
</clipPath>
</defs>
</svg>

<svg xmlns="http://www.w3.org/2000/svg" width="24" height="24" fill="none"><g clip-path="url(#a)"><path fill="currentColor" d="M12 2c5.523 0 10 4.477 10 10a9.97 9.97 0 0 1-2.938 7.08c-.4.4-1.05.392-1.44-.013l-.842-.873a1 1 0 0 1 1.44-1.388l.098.102a8 8 0 1 0-12.636 0l.098-.102a1 1 0 1 1 1.44 1.388l-.842.873a1.01 1.01 0 0 1-1.44.013A9.97 9.97 0 0 1 2 12C2 6.477 6.477 2 12 2m0 4a1 1 0 0 1 1 1v5.268a2 2 0 1 1-2 0V7a1 1 0 0 1 1-1"/></g><defs><clipPath id="a"><path fill="currentColor" d="M0 0h24v24H0z"/></clipPath></defs></svg>
